actions/24/document-new-from-template.svg

<?xml version="1.0" encoding="UTF-8" standalone="no"?>
<svg
   width="24"
   height="24"
   version="1.1"
   id="svg9"
   sodipodi:docname="document-new-from-template.svg"
   inkscape:version="1.1.2 (0a00cf5339, 2022-02-04)"
   xmlns:inkscape="http://www.inkscape.org/namespaces/inkscape"
   xmlns:sodipodi="http://sodipodi.sourceforge.net/DTD/sodipodi-0.dtd"
   xmlns="http://www.w3.org/2000/svg"
   xmlns:svg="http://www.w3.org/2000/svg">
  <sodipodi:namedview
     id="namedview11"
     pagecolor="#000000"
     bordercolor="#666666"
     borderopacity="1.0"
     inkscape:pageshadow="2"
     inkscape:pageopacity="0"
     inkscape:pagecheckerboard="0"
     showgrid="false"
     inkscape:zoom="28.416667"
     inkscape:cx="11.982405"
     inkscape:cy="11.964809"
     inkscape:window-width="1886"
     inkscape:window-height="967"
     inkscape:window-x="0"
     inkscape:window-y="29"
     inkscape:window-maximized="1"
     inkscape:current-layer="g7" />
  <defs
     id="defs3">
    <style
       id="current-color-scheme"
       type="text/css">
   .ColorScheme-Text { color:#eeeeec; } .ColorScheme-Highlight { color:#367bf0; } .ColorScheme-NeutralText { color:#ffcc44; } .ColorScheme-PositiveText { color:#3db47e; } .ColorScheme-NegativeText { color:#dd4747; }
  </style>
  </defs>
  <g
     transform="translate(4,4)"
     id="g7">
    <path
       style="fill:currentColor"
       class="ColorScheme-Text"
       d="M 3,1 C 3,1 2,1 2,2 v 8 H 3 V 9 H 4 V 3 H 9 V 4.9461788 L 10.048676,6 V 6 H 12 v 7 1 h 1 v -1 h 1 V 5 L 10,1 Z m 10,13 v 1 h 1 v -1 z m -1,0 h -1 v 1 h 1 z m -1,0 v -1 h -1 v 1 z m -1,0 H 9 v 1 h 1 z M 9,14 V 13 H 8 v 1 z M 8,14 H 7 v 1 H 8 Z M 7,14 V 13 H 6 v 1 z M 6,14 H 5 v 1 H 6 Z M 5,14 V 13 H 4 v 1 z M 4,14 H 3 v 1 H 4 Z M 3,14 V 13 H 2 v 1 z M 3,13 H 4 V 12 H 3 Z M 3,12 V 11 H 2 v 1 z M 3,11 H 4 V 10 H 3 Z"
       id="path5"
       sodipodi:nodetypes="cscccccccccccccccccccccccccccccccccccccccccccccccccccccccccccccccccccccccccccccccccccccccc" />
  </g>
</svg>

<svg xmlns="http://www.w3.org/2000/svg" width="24" height="24" version="1.1">
 <defs>
  <style id="current-color-scheme" type="text/css">
   .ColorScheme-Text { color:#eeeeec; } .ColorScheme-Highlight { color:#367bf0; } .ColorScheme-NeutralText { color:#ffcc44; } .ColorScheme-PositiveText { color:#3db47e; } .ColorScheme-NegativeText { color:#dd4747; }
  </style>
 </defs>
 <g transform="translate(4,4)">
  <path style="fill:currentColor" class="ColorScheme-Text" d="M 3,1 C 3,1 2,1 2,2 V 10 H 3 V 9 H 4 V 3 H 9 V 6 H 12 V 13 14 H 13 V 13 H 14 V 5 L 10,1 Z M 13,14 V 15 H 14 V 14 Z M 12,14 H 11 V 15 H 12 Z M 11,14 V 13 H 10 V 14 Z M 10,14 H 9 V 15 H 10 Z M 9,14 V 13 H 8 V 14 Z M 8,14 H 7 V 15 H 8 Z M 7,14 V 13 H 6 V 14 Z M 6,14 H 5 V 15 H 6 Z M 5,14 V 13 H 4 V 14 Z M 4,14 H 3 V 15 H 4 Z M 3,14 V 13 H 2 V 14 Z M 3,13 H 4 V 12 H 3 Z M 3,12 V 11 H 2 V 12 Z M 3,11 H 4 V 10 H 3 Z"/>
 </g>
</svg>
